packages/core/src/svgs/networks/mono/astar.svg

<svg width="24" height="24" viewBox="0 0 24 24" fill="none" xmlns="http://www.w3.org/2000/svg">
<path fill-rule="evenodd" clip-rule="evenodd" d="M12 22C17.5229 22 22 17.5227 22 12C22 6.47717 17.5229 2 12 2C6.47717 2 2 6.47717 2 12C2 17.5227 6.47717 22 12 22ZM12 19.7455C16.2777 19.7455 19.7456 16.2777 19.7456 12C19.7456 7.72222 16.2777 4.25446 12 4.25446C7.72222 4.25446 4.25446 7.72222 4.25446 12C4.25446 16.2777 7.72222 19.7455 12 19.7455Z" fill="white"/>
<path d="M15.4309 18.0024C16.3663 18.0024 17.1245 17.2442 17.1245 16.3088C17.1245 15.3736 16.3663 14.6152 15.4309 14.6152C14.4956 14.6152 13.7373 15.3736 13.7373 16.3088C13.7373 17.2442 14.4956 18.0024 15.4309 18.0024Z" fill="white"/>
<path d="M14.418 2.38678C16.0473 2.5032 17.974 3.93855 18.7337 4.64167L19.7035 5.68419C17.9336 4.85983 16.382 3.93855 14.418 3.98702C12.4541 4.03548 9.9325 6.02366 10.1264 9.73323C10.3205 13.4428 13.1815 15.4552 15.2423 16.1341C16.891 16.6772 17.0581 15.9306 16.9126 15.4779C17.5773 16.7715 16.6971 18.0495 15.2423 18.1707C14.0786 18.2677 12.5591 17.4191 11.9449 16.9828C10.2962 15.8269 7.17338 12.4827 7.87167 8.35125C8.74449 3.1869 12.3814 2.24131 14.418 2.38678Z" fill="white"/>
<path d="M5.00845 12.1475C4.55894 12.9771 4.86694 14.0139 5.6964 14.4634C6.52586 14.913 7.56267 14.605 8.01218 13.7754C8.4617 12.946 8.1537 11.9091 7.32424 11.4596C6.49478 11.0101 5.45797 11.3181 5.00845 12.1475Z" fill="white"/>
<path d="M19.2528 18.6991C18.3742 20.0762 16.1893 21.1419 15.2091 21.4748L13.8304 21.8307C15.3985 20.6673 16.9528 19.6864 17.8459 17.9366C18.7391 16.1869 18.1925 13.0226 14.8385 11.4257C11.4847 9.82871 8.35231 11.3853 6.77348 12.8737C5.51044 14.0645 6.10078 14.5731 6.56801 14.6609C5.13896 14.6609 4.39637 13.2402 4.9829 11.9033C5.45213 10.834 6.92213 9.90242 7.59849 9.5704C9.4001 8.67148 13.8284 7.51931 17.128 10.1017C21.2526 13.3298 20.3511 16.9778 19.2528 18.6991Z" fill="white"/>
<path d="M15.4344 5.97722C14.9487 5.16852 13.8992 4.90677 13.0905 5.39263C12.2818 5.87847 12.0201 6.92792 12.5058 7.73664C12.9917 8.54534 14.0412 8.80706 14.8499 8.32122C15.6586 7.83538 15.9203 6.78594 15.4344 5.97722Z" fill="white"/>
<path d="M2.55323 14.9162C1.81394 13.4597 1.96471 11.0343 2.17617 10.0209L2.57041 8.65265C2.77529 10.5944 2.872 12.4337 3.92494 14.0923C4.97787 15.7507 7.98064 16.8883 11.0607 14.8116C14.1407 12.7351 14.3922 9.24628 13.913 7.13013C13.5295 5.43712 12.7695 5.70376 12.4564 6.06152C13.2042 4.76376 14.8057 4.89672 15.6587 6.08128C16.3413 7.02893 16.3962 8.76841 16.3385 9.51965C16.1969 11.5281 14.9382 15.9273 11.0372 17.4563C6.16082 19.3675 3.47735 16.7371 2.55323 14.9162Z" fill="white"/>
</svg>

<svg xmlns="http://www.w3.org/2000/svg" width="24" height="24" fill="none" viewBox="0 0 24 24">
    <path fill="#fff" fill-rule="evenodd" d="M12 22c5.523 0 10-4.477 10-10S17.523 2 12 2 2 6.477 2 12s4.477 10 10 10m0-2.254a7.746 7.746 0 1 0 0-15.492 7.746 7.746 0 0 0 0 15.492" clip-rule="evenodd"/>
    <path fill="#fff" d="M15.43 18.002a1.694 1.694 0 1 0 .001-3.387 1.694 1.694 0 0 0 0 3.387"/>
    <path fill="#fff" d="M14.418 2.387c1.63.116 3.556 1.552 4.316 2.255l.97 1.042c-1.77-.824-3.322-1.745-5.286-1.697s-4.485 2.037-4.292 5.746 3.056 5.722 5.116 6.401c1.649.543 1.816-.203 1.67-.656.665 1.293-.215 2.571-1.67 2.693-1.163.097-2.683-.752-3.297-1.188-1.649-1.156-4.772-4.5-4.073-8.632.872-5.164 4.51-6.11 6.546-5.964"/>
    <path fill="#fff" d="M5.008 12.148a1.708 1.708 0 1 0 3.004 1.627 1.708 1.708 0 0 0-3.004-1.627"/>
    <path fill="#fff" d="M19.253 18.7c-.879 1.376-3.064 2.442-4.044 2.775l-1.379.356c1.569-1.164 3.123-2.145 4.016-3.894s.346-4.914-3.008-6.511-6.486-.04-8.065 1.448c-1.263 1.19-.672 1.7-.205 1.787-1.429 0-2.172-1.42-1.585-2.758.47-1.069 1.94-2 2.615-2.333 1.802-.899 6.23-2.05 9.53.532 4.125 3.228 3.223 6.876 2.125 8.597"/>
    <path fill="#fff" d="M15.434 5.977a1.708 1.708 0 1 0-2.928 1.76 1.708 1.708 0 0 0 2.928-1.76"/>
    <path fill="#fff" d="M2.553 14.916c-.74-1.456-.588-3.882-.377-4.895l.394-1.368c.205 1.941.302 3.78 1.355 5.44 1.053 1.658 4.056 2.795 7.136.719s3.331-5.566 2.852-7.682c-.383-1.693-1.143-1.426-1.457-1.068.748-1.298 2.35-1.165 3.203.02.682.947.737 2.686.68 3.438-.142 2.008-1.4 6.407-5.302 7.936-4.876 1.912-7.56-.719-8.484-2.54"/>
</svg>
